X:69
T: KLIPFEN FELSEN HOHE BERGE
N: E0681
O: Europa, Mitteleuropa, Deutschland, Hessen, Odenwald, Gross Biberau
R: Liebes - Lied, Leid, Klage
M: 6/8
L: 1/16
K: F
 | F4G2AGF2z2 | A4B2c2A2z2 |
c4f2d2c2B2 | A4G2F4z2 |
F4G2AGF2z2 | A4B2c2A2z2 |
c4f2d2c2B2 | A4G2F4z2 |
E4F2G4cd | c2B2A2A2G2z2 |
E4F2G4cd | c2B2A2A2G2z2 |
F4G2AGF2z2 | A4B2c2A2z2 |
c4f2d2c2B2 | A4G2F4z2

@@@ Tune index: 4382
